X: 1
T: Yesterday vocal
N:Words and Music by Lennon/McCartney (really all Paul)
M:4/4
L:1/8
Q:1/4=45
N: Durinsbane
K:F
z8|z4 G/2 F/2F3|zA/2=B/2 _d/2=d/2 e/2f  ed/2 d2|zd/2 d/2 c/2_B/2  A/2G/2 BA/2A3/2z/2G/2| FA/2G3/2z/2D/2 FA/2A2-A/2|G/2 F/2F3 zA/2=B/2 _d/2 =d/2e/2 f/2|e/2 d/2d3 zd/2  d/2 c/2  _B/2A/2G/2|BA/2A3/2z/2G/2 FA/2G3/2z/2D/2| FA/2A2-A/2 A2 A2|de fe/2ded/2 cd/2A/2-|A3z A2 A2|de fe/2ded/2 ce| f4 G/2 F/2F3|zA/2=B/2 _d/2=d/2 e/2f  ed/2 d2|zd/2 d/2 c/2_B/2  A/2G/2 BA/2A3/2z/2G/2|FA/2G3/2z/2D/2 FA/2A2-A/2| A2 A2 de fe/2d/2-|d/2ed/2 cd/2A3-A/2z|A2 A2 de fe/2d/2-|d/2ed/2 ce fc BA| G/2 F/2F3 zA/2=B/2 _d/2=d/2 e/2f/2|e3/2d/2 d2 zd/2 d/2 c/2_B/2  A/2G/2|BA/2A3/2z/2G/2 FA/2G3/2z/2D/2|FA/2A2-A/2 FA GD| FA/2A6-A/2|